svg/u1f233.svg

<svg viewBox="0 0 128 128" xmlns="http://www.w3.org/2000/svg">
  <g>
    <path d="M116,4H12c-4.42,0-8,3.58-8,8v104c0,4.42,3.58,8,8,8h104c4.42,0,8-3.58,8-8V12 C124,7.58,120.42,4,116,4z" fill="#427687"/>
    <path d="M109.7,4H11.5C7.37,4.03,4.03,7.37,4,11.5v97.9c-0.01,4.14,3.34,7.49,7.48,7.5c0.01,0,0.01,0,0.02,0 h98.1c4.14,0.01,7.49-3.34,7.5-7.48c0-0.01,0-0.01,0-0.02V11.5c0.09-4.05-3.13-7.41-7.18-7.5C109.85,4,109.77,4,109.7,4z" fill="#8CAFBF"/>
    <path d="M30.2,48.2h-4.6c-1.1,0-2-0.9-2-2V28.7c0-1.1,0.9-2,2-2h30.1c1.1-0.02,1.98-0.93,1.97-2.03 c0-0.26-0.06-0.53-0.17-0.77c-0.5-1.1-1-2.3-1.6-3.4c-0.48-1-0.06-2.19,0.94-2.67c0.12-0.06,0.24-0.1,0.36-0.13l5.2-1.4 c0.9-0.21,1.84,0.19,2.3,1c1.51,2.7,2.87,5.47,4.1,8.3c0.31,0.72,1.02,1.19,1.8,1.2h29.7c1.1,0,2,0.9,2,2v15.4c0,1.1-0.9,2-2,2 h-4.9c-1.1,0-2-0.9-2-2v-7.6c0-1.1-0.9-2-2-2H79.7c-1.1,0-2,0.9-2,2v12.9c0,1.1,0.9,2,2,2h16.1c1.7,0,4.1-0.1,6-0.3 c1.1-0.12,2.08,0.68,2.2,1.78c0,0.01,0,0.01,0,0.02c0.1,1.2,0.2,2.5,0.4,3.7c0.12,1.1-0.68,2.08-1.78,2.2c-0.01,0-0.01,0-0.02,0 C100.7,59,98.3,59,96,59H80.7c-9.2,0-11.6-2.9-11.6-11.2V36.5c0-1.1-0.9-2-2-2h-6.2c-1.03-0.01-1.9,0.77-2,1.8 c-1.5,14.5-6.8,21.9-29,25.6c-0.91,0.2-1.82-0.32-2.1-1.2c-0.45-1.09-1.02-2.13-1.7-3.1c-0.57-0.95-0.26-2.18,0.69-2.74 c0.22-0.13,0.46-0.22,0.71-0.26C44.8,51.9,48.8,47,50,36.7c0.11-1.1-0.69-2.08-1.79-2.19C48.14,34.5,48.07,34.5,48,34.5H34.2 c-1.1,0-2,0.9-2,2v9.8c0.03,1.03-0.79,1.88-1.81,1.9C30.32,48.21,30.26,48.2,30.2,48.2z M70.1,91.7h31.1c1.1,0,2,0.9,2,2v4.2 c0,1.1-0.9,2-2,2H25.7c-1.1,0-2-0.9-2-2v-4.2c0-1.1,0.9-2,2-2h31.4c1.1,0,2-0.9,2-2V75.9c0-1.1-0.9-2-2-2H34.8c-1.1,0-2-0.9-2-2v-4 c0-1.1,0.9-2,2-2h57.6c1.1,0,2,0.9,2,2v4c0,1.1-0.9,2-2,2H70.1c-1.1,0-2,0.9-2,2v13.8C68.1,90.8,69,91.7,70.1,91.7z" fill="#FAFAFA"/>
    <path d="M39.7,12.9c0-2.3-1.6-3-10.8-2.7c-7.7,0.3-11.5,1.2-13.8,4 s-2.9,8.5-3,15.3c0,4.8,0,9.3,2.5,9.3c3.4,0,3.4-7.9,6.2-12.3C26.2,17.8,39.7,15.9,39.7,12.9z" opacity="0.5" fill="#B4E1ED" enable-background="new "/>
  </g>
</svg>

<svg viewBox="0 0 128 128" xmlns="http://www.w3.org/2000/svg">
  <defs/>
  <path d="M116,4 L12,4 C7.58,4 4,7.58 4,12 L4,116 C4,120.42 7.58,124 12,124 L116,124 C120.42,124 124,120.42 124,116 L124,12 C124,7.58 120.42,4 116,4 Z" fill="#427687"/>
  <path d="M109.7,4 L11.5,4 C7.37,4.03 4.03,7.37 4,11.5 L4,109.4 C3.99,113.54 7.34,116.89 11.48,116.9 C11.49,116.9 11.49,116.9 11.5,116.9 L109.6,116.9 C113.74,116.91 117.09,113.56 117.1,109.42 C117.1,109.41 117.1,109.41 117.1,109.4 L117.1,11.5 C117.19,7.45 113.97,4.09 109.92,4 C109.85,4 109.77,4 109.7,4 Z" fill="#8CAFBF"/>
  <path d="M30.2,48.2 L25.6,48.2 C24.5,48.2 23.6,47.3 23.6,46.2 L23.6,28.7 C23.6,27.6 24.5,26.7 25.6,26.7 L55.7,26.7 C56.8,26.68 57.68,25.77 57.67,24.67 C57.67,24.41 57.61,24.14 57.5,23.9 C57,22.8 56.5,21.6 55.9,20.5 C55.42,19.5 55.84,18.31 56.84,17.83 C56.96,17.77 57.08,17.73 57.2,17.7 L62.4,16.3 C63.3,16.09 64.24,16.49 64.7,17.3 C66.21,20 67.57,22.77 68.8,25.6 C69.11,26.32 69.82,26.79 70.6,26.8 L100.3,26.8 C101.4,26.8 102.3,27.7 102.3,28.8 L102.3,44.2 C102.3,45.3 101.4,46.2 100.3,46.2 L95.4,46.2 C94.3,46.2 93.4,45.3 93.4,44.2 L93.4,36.6 C93.4,35.5 92.5,34.6 91.4,34.6 L79.7,34.6 C78.6,34.6 77.7,35.5 77.7,36.6 L77.7,49.5 C77.7,50.6 78.6,51.5 79.7,51.5 L95.8,51.5 C97.5,51.5 99.9,51.4 101.8,51.2 C102.9,51.08 103.88,51.88 104,52.98 C104,52.99 104,52.99 104,53 C104.1,54.2 104.2,55.5 104.4,56.7 C104.52,57.8 103.72,58.78 102.62,58.9 C102.61,58.9 102.61,58.9 102.6,58.9 C100.7,59 98.3,59 96,59 L80.7,59 C71.5,59 69.1,56.1 69.1,47.8 L69.1,36.5 C69.1,35.4 68.2,34.5 67.1,34.5 L60.9,34.5 C59.87,34.49 59,35.27 58.9,36.3 C57.4,50.8 52.1,58.2 29.9,61.9 C28.99,62.1 28.08,61.58 27.8,60.7 C27.35,59.61 26.78,58.57 26.1,57.6 C25.53,56.65 25.84,55.42 26.79,54.86 C27.01,54.73 27.25,54.64 27.5,54.6 C44.8,51.9 48.8,47 50,36.7 C50.11,35.6 49.31,34.62 48.21,34.51 C48.14,34.5 48.07,34.5 48,34.5 L34.2,34.5 C33.1,34.5 32.2,35.4 32.2,36.5 L32.2,46.3 C32.23,47.33 31.41,48.18 30.39,48.2 C30.32,48.21 30.26,48.2 30.2,48.2 Z M70.1,91.7 L101.2,91.7 C102.3,91.7 103.2,92.6 103.2,93.7 L103.2,97.9 C103.2,99 102.3,99.9 101.2,99.9 L25.7,99.9 C24.6,99.9 23.7,99 23.7,97.9 L23.7,93.7 C23.7,92.6 24.6,91.7 25.7,91.7 L57.1,91.7 C58.2,91.7 59.1,90.8 59.1,89.7 L59.1,75.9 C59.1,74.8 58.2,73.9 57.1,73.9 L34.8,73.9 C33.7,73.9 32.8,73 32.8,71.9 L32.8,67.9 C32.8,66.8 33.7,65.9 34.8,65.9 L92.4,65.9 C93.5,65.9 94.4,66.8 94.4,67.9 L94.4,71.9 C94.4,73 93.5,73.9 92.4,73.9 L70.1,73.9 C69,73.9 68.1,74.8 68.1,75.9 L68.1,89.7 C68.1,90.8 69,91.7 70.1,91.7 Z" fill="#FAFAFA"/>
  <path d="M39.7,12.9 C39.7,10.6 38.1,9.9 28.9,10.2 C21.2,10.5 17.4,11.4 15.1,14.2 C12.8,17 12.2,22.7 12.1,29.5 C12.1,34.3 12.1,38.8 14.6,38.8 C18,38.8 18,30.9 20.8,26.5 C26.2,17.8 39.7,15.9 39.7,12.9 Z" fill="#B4E1ED" opacity="0.5"/>
</svg>
